paymentMethods/giropay.svg

<svg width="128" height="64" viewBox="0 0 128 64" fill="none" xmlns="http://www.w3.org/2000/svg">
<rect width="128" height="64" rx="6" fill="white"/>
<path d="M20.2605 27.1068H18.6403V27.5409H19.9163L23.0819 40.5628H6.73716L9.90284 27.5409H11.1788V27.1068H9.55858L6 41.1428H23.8191L20.2605 27.1068Z" fill="#1F3A6A"/>
<path d="M18.0266 21.4266H11.7925C11.6099 21.4266 11.4348 21.4991 11.3057 21.6282C11.1765 21.7574 11.104 21.9325 11.104 22.1151V22.1151V28.2332H11.684V22.1151C11.684 22.0863 11.6954 22.0587 11.7158 22.0384C11.7361 22.018 11.7637 22.0066 11.7925 22.0066H13.0461V26.4483H11.8823L13.5512 28.2332H16.2716L17.9368 26.4483H16.773V22.0066H18.0266C18.0554 22.0074 18.0829 22.0191 18.1037 22.0391C18.1245 22.0592 18.137 22.0863 18.1388 22.1151V28.2332H18.7226V22.1151C18.7226 21.9325 18.65 21.7574 18.5209 21.6282C18.3918 21.4991 18.2167 21.4266 18.0341 21.4266H18.0266Z" fill="#5DC4E9"/>
<path d="M13.5998 35.7881H16.2192C16.2581 35.7891 16.2969 35.7823 16.3332 35.7681C16.3695 35.7539 16.4025 35.7325 16.4304 35.7053C16.4583 35.6781 16.4805 35.6456 16.4956 35.6097C16.5108 35.5738 16.5186 35.5352 16.5185 35.4962V35.47L16.4175 33.7525C16.4118 33.6678 16.3744 33.5883 16.3126 33.53C16.2509 33.4717 16.1694 33.4389 16.0845 33.4382H13.7383C13.653 33.4389 13.571 33.4715 13.5087 33.5297C13.4463 33.5879 13.4081 33.6674 13.4015 33.7525L13.3005 35.47C13.2974 35.5089 13.3021 35.548 13.3141 35.585C13.3262 35.622 13.3455 35.6563 13.3709 35.6859C13.3963 35.7154 13.4273 35.7397 13.4621 35.7572C13.4969 35.7748 13.5348 35.7853 13.5736 35.7881H13.5998Z" fill="#1F3A6A"/>
<path d="M12.2902 33.4381H9.92533C9.83788 33.4429 9.75428 33.4756 9.68689 33.5316C9.6195 33.5875 9.5719 33.6636 9.55114 33.7487L9.20314 35.4775C9.18732 35.542 9.19774 35.6102 9.23212 35.667C9.2665 35.7238 9.32202 35.7647 9.38649 35.7806C9.41005 35.7843 9.43403 35.7843 9.45759 35.7806H12.0994C12.1839 35.7749 12.2639 35.7407 12.3265 35.6836C12.389 35.6265 12.4303 35.5499 12.4437 35.4663L12.5896 33.745C12.5932 33.7071 12.5893 33.6689 12.578 33.6326C12.5668 33.5962 12.5485 33.5625 12.5241 33.5333C12.4997 33.504 12.4699 33.4799 12.4361 33.4623C12.4024 33.4447 12.3655 33.434 12.3277 33.4307L12.2902 33.4381Z" fill="#1F3A6A"/>
<path d="M13.7047 32.7534H16.1033C16.1342 32.7539 16.165 32.7483 16.1938 32.7369C16.2226 32.7255 16.2488 32.7085 16.2711 32.687C16.2933 32.6655 16.3111 32.6397 16.3234 32.6113C16.3357 32.5829 16.3423 32.5523 16.3427 32.5214V32.5027L16.2604 31.1294C16.2558 31.0615 16.226 30.9978 16.1768 30.9507C16.1277 30.9037 16.0628 30.8766 15.9947 30.8749H13.8169C13.748 30.8748 13.6816 30.9012 13.6315 30.9485C13.5814 30.9958 13.5513 31.0606 13.5475 31.1294L13.4839 32.5027C13.4819 32.5337 13.486 32.5647 13.496 32.5941C13.506 32.6235 13.5217 32.6506 13.5422 32.6739C13.5627 32.6972 13.5876 32.7162 13.6155 32.7298C13.6434 32.7435 13.6737 32.7515 13.7047 32.7534V32.7534Z" fill="#1F3A6A"/>
<path d="M12.5858 30.8749H10.3706C10.3 30.8771 10.232 30.9025 10.1772 30.9471C10.1225 30.9917 10.0839 31.0532 10.0675 31.1219L9.7906 32.5064C9.77808 32.557 9.78597 32.6105 9.81258 32.6553C9.83919 32.7001 9.88238 32.7327 9.93279 32.7459C9.95258 32.7495 9.97288 32.7495 9.99266 32.7459H12.4249C12.4936 32.7446 12.5594 32.7184 12.6103 32.6724C12.6612 32.6263 12.6937 32.5633 12.7018 32.4952L12.8178 31.1219C12.8231 31.0605 12.8041 30.9995 12.7649 30.9519C12.7258 30.9044 12.6695 30.8741 12.6083 30.8674L12.5858 30.8749Z" fill="#1F3A6A"/>
<path d="M19.8189 32.7534C19.8713 32.7565 19.9229 32.7391 19.9627 32.7049C20.0025 32.6707 20.0275 32.6223 20.0322 32.57C20.0343 32.5489 20.0343 32.5276 20.0322 32.5064L19.7516 31.1219C19.7358 31.0529 19.6974 30.9911 19.6425 30.9464C19.5876 30.9016 19.5193 30.8765 19.4485 30.8749H17.2258C17.1642 30.8749 17.1052 30.8994 17.0617 30.9429C17.0182 30.9864 16.9938 31.0454 16.9938 31.1069V31.1294L17.1135 32.5027C17.1208 32.5705 17.1525 32.6334 17.2028 32.6796C17.2531 32.7257 17.3184 32.752 17.3867 32.7534H19.8189Z" fill="#1F3A6A"/>
<path d="M13.8095 30.2725H16.0097C16.0369 30.2735 16.064 30.269 16.0894 30.2593C16.1147 30.2496 16.1379 30.2349 16.1575 30.216C16.177 30.1972 16.1926 30.1746 16.2032 30.1495C16.2138 30.1245 16.2193 30.0976 16.2193 30.0705L16.1557 29.0115C16.1519 28.9516 16.1253 28.8954 16.0815 28.8544C16.0377 28.8134 15.9799 28.7906 15.9199 28.7907H13.8993C13.8393 28.7906 13.7815 28.8134 13.7377 28.8544C13.6939 28.8954 13.6673 28.9516 13.6635 29.0115L13.5999 30.0705C13.5984 30.098 13.6023 30.1255 13.6115 30.1515C13.6207 30.1775 13.6348 30.2015 13.6533 30.222C13.6717 30.2425 13.694 30.2592 13.7189 30.2711C13.7437 30.2829 13.7707 30.2898 13.7982 30.2912L13.8095 30.2725Z" fill="#1F3A6A"/>
<path d="M19.355 30.2724C19.3781 30.2735 19.4012 30.2699 19.4229 30.262C19.4446 30.254 19.4646 30.2419 19.4816 30.2263C19.4986 30.2106 19.5124 30.1918 19.5222 30.1708C19.5319 30.1498 19.5374 30.1272 19.5384 30.1041C19.5402 30.0879 19.5402 30.0716 19.5384 30.0554L19.3213 28.989C19.3062 28.9291 19.2722 28.8757 19.2243 28.8366C19.1765 28.7975 19.1174 28.7749 19.0557 28.7719H17.0126C16.9859 28.7709 16.9593 28.7753 16.9344 28.7848C16.9094 28.7943 16.8867 28.8088 16.8675 28.8273C16.8483 28.8458 16.833 28.868 16.8225 28.8926C16.8121 28.9172 16.8067 28.9436 16.8068 28.9703V28.9927L16.9003 30.0517C16.9059 30.1116 16.9334 30.1673 16.9776 30.2081C17.0219 30.2488 17.0796 30.2718 17.1398 30.2724H19.355Z" fill="#1F3A6A"/>
<path d="M12.8103 28.7719H10.7598C10.6979 28.7743 10.6385 28.7967 10.5905 28.8359C10.5426 28.875 10.5087 28.9288 10.4941 28.989L10.2771 30.0554C10.2715 30.078 10.2705 30.1015 10.2741 30.1245C10.2777 30.1475 10.2858 30.1696 10.298 30.1894C10.3102 30.2093 10.3262 30.2265 10.345 30.2401C10.3639 30.2537 10.3853 30.2634 10.408 30.2687H12.6794C12.7399 30.2681 12.7982 30.2453 12.843 30.2046C12.8879 30.1639 12.9162 30.1082 12.9226 30.0479L13.0124 28.989C13.0177 28.9365 13.0023 28.884 12.9694 28.8428C12.9366 28.8015 12.8889 28.7748 12.8365 28.7682L12.8103 28.7719Z" fill="#1F3A6A"/>
<path d="M20.3653 35.7881C20.3983 35.7897 20.4312 35.7847 20.4622 35.7734C20.4931 35.7622 20.5216 35.745 20.546 35.7227C20.5703 35.7005 20.59 35.6737 20.6039 35.6438C20.6179 35.6139 20.6258 35.5816 20.6273 35.5487C20.6309 35.5251 20.6309 35.5011 20.6273 35.4776L20.2755 33.7488C20.2553 33.6634 20.2079 33.5869 20.1404 33.5309C20.0729 33.4749 19.9889 33.4423 19.9013 33.4382H17.5289C17.491 33.4372 17.4532 33.4438 17.4178 33.4577C17.3824 33.4715 17.3502 33.4923 17.323 33.5188C17.2958 33.5453 17.2742 33.577 17.2594 33.612C17.2446 33.647 17.237 33.6846 17.2371 33.7226V33.7525L17.3867 35.4738C17.4001 35.5574 17.4414 35.634 17.5039 35.6911C17.5665 35.7482 17.6465 35.7824 17.731 35.7881H20.3653Z" fill="#1F3A6A"/>
<path d="M16.1931 36.5739H13.6261C13.5244 36.5753 13.4269 36.6144 13.3523 36.6835C13.2776 36.7526 13.2312 36.8468 13.222 36.9481L13.1097 39.1222C13.1097 39.2214 13.1492 39.3166 13.2193 39.3868C13.2895 39.4569 13.3847 39.4964 13.4839 39.4964H16.3652C16.4645 39.4964 16.5596 39.4569 16.6298 39.3868C16.7 39.3166 16.7394 39.2214 16.7394 39.1222L16.5972 36.9481C16.588 36.8468 16.5416 36.7526 16.467 36.6835C16.3923 36.6144 16.2948 36.5753 16.1931 36.5739V36.5739Z" fill="#1F3A6A"/>
<path d="M11.9497 36.5739H9.36773C9.26096 36.577 9.15822 36.6154 9.07561 36.6831C8.993 36.7508 8.93518 36.844 8.91121 36.9481L8.46967 39.1371C8.45907 39.1765 8.45651 39.2175 8.46214 39.2579C8.46776 39.2982 8.48147 39.337 8.50242 39.3719C8.52338 39.4069 8.55116 39.4372 8.58411 39.4612C8.61706 39.4851 8.65449 39.5022 8.69418 39.5113C8.72149 39.5152 8.7492 39.5152 8.7765 39.5113H11.7027C11.8052 39.5101 11.9037 39.4713 11.9795 39.4024C12.0554 39.3334 12.1033 39.2391 12.1143 39.1371L12.3014 36.9556C12.3066 36.9116 12.3031 36.867 12.2911 36.8244C12.279 36.7818 12.2587 36.7419 12.2312 36.7072C12.2038 36.6724 12.1697 36.6434 12.131 36.6218C12.0924 36.6002 12.0498 36.5865 12.0058 36.5814L11.9497 36.5739Z" fill="#1F3A6A"/>
<path d="M20.9079 36.9481C20.8841 36.8446 20.8269 36.7519 20.745 36.6842C20.6632 36.6166 20.5613 36.5778 20.4552 36.5739H17.8695C17.8238 36.5739 17.7785 36.5829 17.7363 36.6004C17.6941 36.6179 17.6557 36.6435 17.6234 36.6758C17.5911 36.7082 17.5655 36.7465 17.548 36.7887C17.5305 36.831 17.5215 36.8762 17.5215 36.9219V36.9481L17.7086 39.1297C17.7212 39.2316 17.7701 39.3255 17.8464 39.3943C17.9227 39.463 18.0213 39.5019 18.1239 39.5038H21.0464C21.0862 39.5054 21.1259 39.499 21.1633 39.4851C21.2006 39.4713 21.2349 39.4502 21.2641 39.4231C21.2932 39.396 21.3168 39.3634 21.3334 39.3271C21.35 39.2909 21.3593 39.2518 21.3607 39.212C21.3663 39.1848 21.3663 39.1568 21.3607 39.1297L20.9079 36.9481Z" fill="#1F3A6A"/>
<path d="M53.5226 27.1106H51.0529V41.1428H53.5226V27.1106ZM45.5036 34.2203C45.5173 35.2743 45.2361 36.3112 44.6916 37.2138C44.2438 38.071 43.4739 38.7153 42.5512 39.0051C41.6285 39.2949 40.6285 39.2064 39.771 38.7592C39.4623 38.6009 39.1786 38.3979 38.9291 38.1568C37.9412 37.1764 37.6531 35.6048 37.6531 34.1043C37.6531 31.9863 38.278 30.7964 39.2808 29.8796C39.8706 29.3072 40.6592 28.9854 41.4811 28.9815C42.3253 29.0045 43.1382 29.3058 43.7936 29.8385C45.5785 31.3352 45.4999 34.0743 45.4999 34.209M46.7572 45.0606C47.8012 43.6799 47.8798 42.2467 47.9621 39.3093L47.9284 27.1031H45.5897V29.2772C45.2865 28.7801 44.9078 28.3332 44.4671 27.9525C43.5205 27.1774 42.3217 26.7778 41.0994 26.8299C40.1687 26.832 39.2526 27.0614 38.4308 27.4984C37.6091 27.9354 36.9066 28.5665 36.3845 29.337C35.2844 30.8338 34.9926 32.6711 34.9926 34.2015C34.9766 35.2037 35.1168 36.2023 35.4079 37.1614C35.7564 38.3571 36.4377 39.4291 37.3724 40.2523C38.4239 41.1065 39.7639 41.5232 41.1144 41.416C42.3372 41.3765 43.5161 40.9507 44.4821 40.1999C44.8455 39.8927 45.1641 39.5363 45.4288 39.1409V41.0643C45.4087 41.7001 45.2991 42.33 45.1033 42.9352C44.9652 43.3291 44.7502 43.6916 44.4709 44.0017C43.7973 44.78 42.9367 45.1841 41.2827 45.244C40.0673 45.2397 38.8605 45.0388 37.7092 44.649C37.2224 44.4694 36.7538 44.2439 36.3097 43.9755L36.0478 46.419C36.4444 46.5799 36.7326 46.6884 37.1704 46.8306C38.4361 47.2202 39.7525 47.4207 41.0769 47.4255C42.469 47.4754 43.8504 47.1661 45.0883 46.5275C45.7579 46.1762 46.3389 45.6772 46.7871 45.0681M50.9033 23.769H53.6049V21H50.9033V23.769ZM62.7016 29.1911C63.2838 29.1973 63.8598 29.3115 64.4004 29.5279V27.0619C64.2769 27.0619 63.5211 26.9459 62.9036 26.9459C62.2795 26.918 61.6572 27.0333 61.0845 27.283C60.5118 27.5327 60.0038 27.9102 59.5995 28.3866C59.3381 28.7283 59.1017 29.0884 58.8923 29.4643L58.7613 27.1106H56.4039C56.4787 28.8693 56.5424 30.1041 56.5424 31.8254C56.5424 33.861 56.5049 35.2942 56.5049 37.3074V41.1391H59.0532V34.2726C59.128 32.9405 59.2066 31.1781 60.5687 29.9806C61.1498 29.4573 61.9085 29.175 62.6904 29.1911M75.6 33.9883C75.6 35.5225 75.1248 37.7676 73.2389 38.8303C72.641 39.153 71.9725 39.3227 71.2931 39.3243C70.7067 39.3206 70.1278 39.1931 69.5942 38.9501C69.3545 38.8214 69.1255 38.6738 68.9094 38.5085C68.3141 38.0176 67.8543 37.3825 67.5736 36.6637C67.2254 35.8045 67.0647 34.8809 67.1021 33.9546C67.147 32.0088 67.9553 30.6243 68.8009 29.9133C69.5698 29.2585 70.5488 28.9025 71.5587 28.9105C73.7291 28.9366 74.6945 30.4297 75.1697 31.571C75.4505 32.3461 75.5961 33.1638 75.6 33.9883ZM76.1501 39.6012C77.7629 37.9622 78.2194 35.7357 78.2194 33.9546C78.1445 30.5083 76.3484 28.4502 74.6309 27.5484C73.677 27.0926 72.6308 26.8634 71.5737 26.8786C68.4267 26.8786 66.4061 28.5063 65.4369 30.1865C64.7833 31.415 64.4475 32.7876 64.4603 34.1791C64.4341 36.993 65.4369 38.6694 66.6381 39.8219C66.9193 40.0613 67.2182 40.279 67.5324 40.473C68.3182 40.9894 69.4445 41.4197 71.3005 41.4197C72.3179 41.4539 73.3304 41.2662 74.2679 40.8697C74.9639 40.5665 75.5981 40.1377 76.1389 39.6049" fill="#1F3A6A"/>
<path d="M80.3822 30.0929C80.457 32.8058 80.457 34.7329 80.457 37.457C80.457 40.8584 80.4009 44.2599 80.3822 47.6575H82.8855V39.2419C83.1257 39.5607 83.3909 39.8598 83.6788 40.1363C84.6338 40.9741 85.866 41.4275 87.1364 41.4085C87.9679 41.4132 88.7913 41.2446 89.5541 40.9134C90.3169 40.5823 91.0024 40.0959 91.5668 39.4852C93.6623 37.24 93.4902 34.1903 93.4902 33.7375C93.4784 32.6879 93.2887 31.6478 92.9289 30.6617C92.2516 28.9254 90.6575 26.7813 87.3496 26.7813C85.9622 26.7631 84.6215 27.282 83.6077 28.2294C83.2742 28.5298 82.9822 28.8733 82.7396 29.251L82.6311 27.1106H80.2699C80.3298 28.2294 80.341 28.9815 80.3822 30.0929ZM82.8444 34.0032C82.8462 33.3417 82.9432 32.6838 83.1325 32.0499C83.7873 30.0667 85.2729 28.9815 86.9268 28.9815C87.6596 28.9905 88.3736 29.2144 88.9803 29.6255C89.587 30.0366 90.0596 30.6168 90.3394 31.2941C90.7427 32.1957 90.92 33.1822 90.8558 34.1679C90.8535 34.9047 90.727 35.6359 90.4816 36.3307C89.5686 38.9501 87.4881 39.1933 86.8108 39.1933C85.2167 39.1933 83.7499 38.1231 83.1213 36.1997C82.9155 35.4864 82.8221 34.7453 82.8444 34.0032V34.0032Z" fill="#1F3A6A"/>
<path d="M119.343 27.1068L116.211 34.7029L114.797 38.3813L114.699 38.5796C114.344 37.5244 113.854 36.2109 113.409 34.9649L110.505 27.1068H107.814L113.45 41.1353L110.703 47.6575H113.218L122 27.1068H119.343Z" fill="#1F3A6A"/>
<path d="M105.97 28.9254C105.221 27.7018 103.35 26.8374 101.15 26.8374C98.4744 26.8374 97.1199 27.7991 96.7494 28.0236V30.2313C97.3107 29.8946 98.931 28.8992 100.675 28.8992C102.418 28.8992 103.717 29.8796 104.069 30.7964C104.253 31.3959 104.338 32.0217 104.319 32.6486C103.672 32.615 102.98 32.5888 102.306 32.5888C100.922 32.5888 98.9759 32.6486 97.5913 33.3371C96.5174 33.8535 95.0431 34.8339 95.0431 37.0978C95.0308 37.7106 95.1512 38.3188 95.396 38.8807C95.6408 39.4426 96.0042 39.945 96.4613 40.3533C97.2999 40.9907 98.3229 41.3387 99.3762 41.3449C100.664 41.4099 101.942 41.0852 103.043 40.4131C103.593 39.968 104.095 39.4663 104.54 38.9164V41.1615H106.658V32.0836C106.658 30.6804 106.347 29.4942 105.97 28.9254ZM104.383 34.819C104.408 35.4585 104.336 36.0981 104.17 36.7161C104.035 37.1501 103.822 37.5559 103.541 37.9135C103.162 38.39 102.678 38.7727 102.127 39.0323C101.576 39.2918 100.973 39.4212 100.364 39.4103C99.2079 39.4103 97.6737 38.8116 97.6737 37.1651C97.6737 35.5187 99.5821 34.6693 100.641 34.4897C101.26 34.4 101.886 34.3624 102.512 34.3774C103.136 34.3653 103.761 34.389 104.383 34.4485V34.8227V34.819Z" fill="#1F3A6A"/>
</svg>

<svg xmlns="http://www.w3.org/2000/svg" width="128" height="64" fill="none"><rect width="128" height="64" fill="#fff" rx="6"/><path fill="#1F3A6A" d="M20.26 27.107h-1.62v.434h1.276l3.166 13.022H6.737L9.903 27.54h1.276v-.434h-1.62L6 41.143h17.82l-3.56-14.036Z"/><path fill="#5DC4E9" d="M18.027 21.427h-6.235a.688.688 0 0 0-.688.688v6.118h.58v-6.118a.108.108 0 0 1 .109-.108h1.253v4.441h-1.164l1.67 1.785h2.72l1.665-1.785h-1.164v-4.441h1.254a.116.116 0 0 1 .112.108v6.118h.584v-6.118a.689.689 0 0 0-.689-.688h-.007Z"/><path fill="#1F3A6A" d="M13.6 35.788h2.62a.292.292 0 0 0 .299-.292v-.026l-.101-1.718a.337.337 0 0 0-.334-.314h-2.346a.34.34 0 0 0-.336.314L13.3 35.47a.297.297 0 0 0 .273.318h.026ZM12.29 33.438H9.925a.408.408 0 0 0-.374.31l-.348 1.73a.25.25 0 0 0 .183.303.23.23 0 0 0 .072 0h2.641a.374.374 0 0 0 .345-.315l.146-1.721a.287.287 0 0 0-.262-.314l-.038.007ZM13.705 32.753h2.398a.236.236 0 0 0 .24-.232v-.018l-.083-1.374a.273.273 0 0 0-.265-.254h-2.178a.27.27 0 0 0-.27.254l-.063 1.374a.236.236 0 0 0 .22.25ZM12.586 30.875H10.37a.322.322 0 0 0-.303.247l-.277 1.384a.198.198 0 0 0 .142.24c.02.003.04.003.06 0h2.432a.285.285 0 0 0 .277-.25l.116-1.374a.236.236 0 0 0-.21-.255l-.022.008ZM19.819 32.753a.202.202 0 0 0 .213-.183.322.322 0 0 0 0-.064l-.28-1.384a.318.318 0 0 0-.303-.247h-2.223a.232.232 0 0 0-.232.232v.022l.12 1.374a.281.281 0 0 0 .273.25h2.432ZM13.81 30.273h2.2a.203.203 0 0 0 .21-.203l-.064-1.058a.236.236 0 0 0-.236-.221H13.9a.236.236 0 0 0-.236.22l-.064 1.06a.209.209 0 0 0 .198.22l.011-.018ZM19.355 30.272a.174.174 0 0 0 .167-.101.177.177 0 0 0 .016-.067.22.22 0 0 0 0-.049l-.217-1.066a.287.287 0 0 0-.265-.217h-2.043a.199.199 0 0 0-.206.198v.023l.093 1.059a.244.244 0 0 0 .24.22h2.215ZM12.81 28.772h-2.05a.285.285 0 0 0-.266.217l-.217 1.066a.175.175 0 0 0 .131.214h2.271a.247.247 0 0 0 .244-.221l.09-1.059a.202.202 0 0 0-.177-.22l-.026.003ZM20.365 35.788a.248.248 0 0 0 .239-.144.251.251 0 0 0 .023-.095.235.235 0 0 0 0-.071l-.351-1.73a.404.404 0 0 0-.375-.31H17.53a.284.284 0 0 0-.292.285v.03l.15 1.72a.375.375 0 0 0 .344.315h2.634ZM16.193 36.574h-2.567a.411.411 0 0 0-.404.374l-.112 2.174a.375.375 0 0 0 .374.374h2.881a.374.374 0 0 0 .374-.374l-.142-2.174a.411.411 0 0 0-.404-.374ZM11.95 36.574H9.368a.483.483 0 0 0-.457.374l-.441 2.19a.303.303 0 0 0 .224.373.291.291 0 0 0 .082 0h2.927a.419.419 0 0 0 .411-.374l.187-2.181a.338.338 0 0 0-.295-.375l-.056-.007ZM20.908 36.948a.483.483 0 0 0-.453-.374H17.87a.348.348 0 0 0-.349.348v.026l.188 2.182a.427.427 0 0 0 .415.374h2.922a.3.3 0 0 0 .287-.177.302.302 0 0 0 .028-.115.204.204 0 0 0 0-.082l-.453-2.182ZM53.523 27.11h-2.47v14.033h2.47V27.11Zm-8.02 7.11a5.653 5.653 0 0 1-.811 2.994 3.648 3.648 0 0 1-4.921 1.545 3.529 3.529 0 0 1-.842-.602c-.988-.98-1.276-2.552-1.276-4.053 0-2.118.625-3.308 1.628-4.224a3.181 3.181 0 0 1 2.2-.898 3.832 3.832 0 0 1 2.313.857c1.785 1.496 1.706 4.235 1.706 4.37m1.257 10.852c1.044-1.381 1.123-2.814 1.205-5.752l-.034-12.206H45.59v2.174a5.612 5.612 0 0 0-1.123-1.325A4.981 4.981 0 0 0 41.1 26.83a5.711 5.711 0 0 0-4.714 2.507c-1.1 1.497-1.392 3.334-1.392 4.865a9.66 9.66 0 0 0 .415 2.96 6.568 6.568 0 0 0 1.964 3.09 5.273 5.273 0 0 0 3.742 1.164 5.793 5.793 0 0 0 3.368-1.216c.364-.307.682-.664.947-1.06v1.924a6.774 6.774 0 0 1-.326 1.871 3.152 3.152 0 0 1-.632 1.067c-.674.778-1.534 1.182-3.188 1.242a11.268 11.268 0 0 1-3.574-.595 8.179 8.179 0 0 1-1.4-.674l-.261 2.444c.396.16.685.27 1.122.412 1.266.39 2.582.59 3.907.594a8.115 8.115 0 0 0 4.011-.897c.67-.352 1.25-.85 1.7-1.46m4.115-21.299h2.702V21h-2.702v2.769Zm11.799 5.422c.582.006 1.158.12 1.698.337v-2.466c-.123 0-.879-.116-1.496-.116a4.094 4.094 0 0 0-3.305 1.44 8.91 8.91 0 0 0-.707 1.078l-.13-2.353h-2.358c.075 1.758.138 2.993.138 4.714 0 2.036-.037 3.47-.037 5.482v3.832h2.548v-6.866c.075-1.333.154-3.095 1.516-4.292a3.076 3.076 0 0 1 2.121-.79m12.91 4.797c0 1.535-.475 3.78-2.361 4.842a4.117 4.117 0 0 1-1.946.494 4.162 4.162 0 0 1-1.699-.374 5.09 5.09 0 0 1-.685-.442 4.524 4.524 0 0 1-1.335-1.844 6.513 6.513 0 0 1-.472-2.71c.045-1.945.853-3.33 1.699-4.04a4.202 4.202 0 0 1 2.758-1.004c2.17.027 3.136 1.52 3.61 2.661.282.775.427 1.593.431 2.417Zm.55 5.613c1.613-1.639 2.07-3.865 2.07-5.646-.076-3.447-1.872-5.505-3.59-6.407-.953-.455-2-.685-3.056-.67-3.147 0-5.168 1.628-6.137 3.308a8.337 8.337 0 0 0-.977 3.993c-.026 2.814.977 4.49 2.178 5.643.281.24.58.457.894.651.786.516 1.913.947 3.769.947a7.013 7.013 0 0 0 2.967-.55 6.187 6.187 0 0 0 1.87-1.265M80.382 30.093c.075 2.713.075 4.64.075 7.364 0 3.401-.056 6.803-.075 10.2h2.503v-8.415c.24.319.506.618.794.894a5.127 5.127 0 0 0 3.457 1.272 5.986 5.986 0 0 0 4.43-1.923c2.096-2.245 1.924-5.295 1.924-5.748a9.278 9.278 0 0 0-.561-3.075c-.677-1.737-2.272-3.88-5.58-3.88a5.377 5.377 0 0 0-3.741 1.447c-.334.3-.626.644-.868 1.022l-.109-2.14H80.27c.06 1.118.071 1.87.112 2.982Zm2.462 3.91c.002-.661.1-1.32.288-1.953.655-1.983 2.14-3.068 3.795-3.068a3.743 3.743 0 0 1 3.412 2.312c.404.902.581 1.888.517 2.874a6.556 6.556 0 0 1-.374 2.163c-.913 2.62-2.994 2.862-3.671 2.862-1.594 0-3.061-1.07-3.69-2.993a7.15 7.15 0 0 1-.277-2.197ZM119.343 27.107l-3.132 7.596-1.414 3.678-.098.199c-.355-1.056-.845-2.37-1.29-3.615l-2.904-7.858h-2.691l5.636 14.028-2.747 6.523h2.515L122 27.107h-2.657ZM105.97 28.925c-.749-1.223-2.62-2.088-4.82-2.088-2.676 0-4.03.962-4.4 1.187v2.207c.56-.336 2.181-1.332 3.925-1.332 1.743 0 3.042.98 3.394 1.897.184.6.269 1.226.25 1.853a39.318 39.318 0 0 0-2.013-.06c-1.384 0-3.33.06-4.715.748-1.074.516-2.548 1.497-2.548 3.76a4.25 4.25 0 0 0 1.418 3.256 4.865 4.865 0 0 0 2.915.992 6.417 6.417 0 0 0 3.667-.932c.55-.445 1.052-.947 1.497-1.497v2.245h2.118v-9.077c0-1.404-.311-2.59-.688-3.159Zm-1.587 5.894c.025.64-.047 1.28-.213 1.897-.135.434-.348.84-.629 1.197a3.967 3.967 0 0 1-3.177 1.497c-1.156 0-2.69-.598-2.69-2.245 0-1.646 1.908-2.496 2.967-2.675a11.18 11.18 0 0 1 1.871-.113c.624-.012 1.249.012 1.871.072v.374-.004Z"/></svg>
